!!!COM:	la Rue, Pierre de
!!!CDT:	~1452///-1518/11/20
!!!OPR:	Missa De virginibus
!!!ONM:	5
!!!OTL:	Agnus Dei
!!!AGN:	Mass; Agnus Dei
!!!SCT:	Rue1015e
!!!SCA:	Rue1015e
!!!voices:	4
!!!voices-OPR:	4
**kern	**kern	**kern	**kern
*staff4	*staff3	*staff2	*staff1
*Ivox	*Ivox	*Ivox	*Ivox
*I"Bassus	*I"Tenor	*I"Contra	*I"Discantus
*I'B	*I'T	*I'C	*I'D
*>[A,B]	*>[A,B]	*>[A,B]	*>[A,B]
*>A	*>A	*>A	*>A
*clefF4	*clefGv2	*clefGv2	*clefG2
*k[]	*k[]	*k[]	*k[]
*M2/1	*M2/1	*M2/1	*M2/1
*met(C)	*met(C)	*met(C)	*met(C)
!!section: Agnus Dei I
!!!OMD: Agnus Dei I
=1-	=1-	=1-	=1-
1F	0r	1f	0r
2.F\	.	[1f	.
4G\	.	.	.
=2	=2	=2	=2
2A\	0r	2f\]	0r
2B-i\	.	2d\	.
2G\	.	2e\	.
2A\	.	2f\	.
=3	=3	=3	=3
2B-i\	0r	2g\	0r
1c	.	2e\	.
.	.	1d	.
2B-i\	.	.	.
=4	=4	=4	=4
2c\	0r	2c\	0r
2A\	.	1f	.
1G	.	.	.
.	.	2e\	.
=5	=5	=5	=5
2.F\	1c	2.a\	1cc
4G\	.	4g\	.
[1A	2.c\	4f\	[1cc
.	.	4e\	.
.	.	[2a\	.
.	4d\	.	.
=6	=6	=6	=6
1A]	2e\	4a\]	2cc\]
.	.	4g\	.
.	2f\	2f\	2a/
2G\	2g\	1e	2b\
2A\	2e\	.	2cc\
=7	=7	=7	=7
2D\	2f\	0d	2dd\
2G\	1g	.	2b\
1D	.	.	1a
.	2f\	.	.
=8	=8	=8	=8
2E\	2g\	2r	2g/
2C/	2e\	2g\	1cc
1G	1d	2.g\	.
.	.	.	2b\
.	.	4f\	.
=9	=9	=9	=9
1C	0c	2e\	2.ee\
.	.	1a	.
.	.	.	4dd\
2r	.	.	4cc\
.	.	.	4b\
[2c\	.	[2g\	[2ee\
=10	=10	=10	=10
4c\]	1r	4g\]	4ee\]
4B\	.	4f\	4dd\
2A\	.	1f	2cc\
1G	2r	.	1b
.	2B\	2e\	.
=11	=11	=11	=11
0F	2c\	0f	0a
.	2d\	.	.
.	2c\	.	.
.	[2f\	.	.
=12	=12	=12	=12
0r	4f\]	0r	2r
.	4e\	.	.
.	1d	.	2dd\
.	.	.	2.dd\
.	[2g\	.	.
.	.	.	4cc\
=13	=13	=13	=13
0r	4g\]	0r	2b\
.	4f\	.	.
.	4e\	.	1ee
.	4d\	.	.
.	2c\	.	.
.	2B\	.	[2dd\
=14	=14	=14	=14
0r	1c	0r	4dd\]
.	.	.	4cc\
.	.	.	1cc
.	1d	.	.
.	.	.	2b\
=15	=15	=15	=15
1F	0c	2r	[0cc
.	.	2f\	.
2.F\	.	2.f\	.
4G\	.	4e\	.
=16	=16	=16	=16
4A\	0r	4f\	0cc]
4B\	.	4g\	.
1c	.	1a	.
2B\	.	4g\	.
.	.	4f\	.
=17	=17	=17	=17
1c	2.c\	4e\	2r
.	.	4d\	.
.	.	4e\	2cc\
.	4d\	4f\	.
2c\	4e\	2g\	2.cc\
.	4f\	.	.
[2c\	[2e\	[2a\	.
.	.	.	4b\
=18	=18	=18	=18
4c\]	4e\]	2a\]	4cc\
4B\	4d\	.	4dd\
4A\	4c\	1g	1ee
4G\	4B\	.	.
1A	1c	.	.
.	.	2f#i\	4dd\
.	.	.	4cc\
=19	=19	=19	=19
1G	2.d\	1g	4b\
.	.	.	4a/
.	.	.	4b\
.	4e\	.	4cc\
1r	2f\	1r	2dd\
.	[2g\	.	[2ee\
=20	=20	=20	=20
1r	4g\]	0r	2ee\]
.	4f\	.	.
.	4e\	.	1dd
.	4d\	.	.
1A	1e	.	.
.	.	.	2cc#i\
=21	=21	=21	=21
2B\	[0d	0r	0dd
1G	.	.	.
4F\	.	.	.
4E\	.	.	.
=22	=22	=22	=22
1D	0d]	1a	0r
[1G	.	2b\	.
.	.	[2g\	.
=23	=23	=23	=23
0G_	2r	2g\]	0r
.	2.d\	4f\	.
.	.	4e\	.
.	.	2d\	.
.	4c\	.	.
.	4B\	[2g\	.
.	4A/	.	.
=24	=24	=24	=24
1G]	2G/	4g\]	1r
.	.	4f\	.
.	1c	2e\	.
1G	.	1d	1dd
.	2B\	.	.
=25	=25	=25	=25
2.C/	2c\	[0c	2ee\
.	1g	.	2.cc\
4D\	.	.	.
2E\	.	.	.
.	.	.	4b\
2F\	2f\	.	2a/
=26	=26	=26	=26
2.C/	2e\	0c]	2g/
.	1g	.	2.cc\
4D\	.	.	.
2E\	.	.	.
.	.	.	4b\
2F\	[2f\	.	2a/
=27	=27	=27	=27
1G	4f\]	1r	2g/
.	4e\	.	.
.	2e\	.	4a/
.	.	.	4g/
2.F\	1f	1c	[1a
4G\	.	.	.
=28	=28	=28	=28
2A\	0r	2c\	1a]
2.D\	.	1f	.
.	.	.	1r
4E\	.	.	.
4F\	.	4e\	.
4G\	.	4d\	.
=29	=29	=29	=29
2A\	0r	2.c\	0r
2F\	.	.	.
.	.	4d\	.
1G	.	2e\	.
.	.	[2d\	.
=30	=30	=30	=30
2.G\	0r	2d\]	1g
.	.	2.g\	.
4E\	.	.	.
2F\	.	.	2a/
.	.	4f\	.
[2A\	.	4e\	[2cc\
.	.	4d\	.
=31	=31	=31	=31
4A\]	0r	2e\	2cc\]
4G\	.	.	.
2F\	.	1d	4b\
.	.	.	4a/
1E	.	.	2.g/
.	.	2c#i\	.
.	.	.	4a/
=32	=32	=32	=32
0D	1f	0d	2b\
.	.	.	1a
.	2f\	.	.
.	[2f\	.	[2dd\
=33	=33	=33	=33
0r	4f\]	0r	4dd\]
.	4e\	.	4cc\
.	4d\	.	4b\
.	4c\	.	4a/
.	2d\	.	2b\
.	2A/	.	[2a/
=34	=34	=34	=34
1r	1B	0r	2a/]
.	.	.	2g#i/
2r	[1A	.	[1a
2C/	.	.	.
=35	=35	=35	=35
2D\	1A]	2r	1a]
2.F\	.	2c\	.
.	1r	2d\	1r
4E\	.	.	.
4D\	.	2f\	.
4C/	.	.	.
=36	=36	=36	=36
4D\	0r	4f\	0r
4C/	.	4e\	.
2.G\	.	4d\	.
.	.	4c\	.
.	.	4d\	.
4A\	.	4c\	.
[2B-i\	.	[2g\	.
=37	=37	=37	=37
4B-\]	0r	4g\]	1r
4A\	.	4f\	.
4G\	.	1f	.
4F\	.	.	.
1G	.	.	2r
.	.	2e\	2g/
=38	=38	=38	=38
1F	2r	1f	2a/
.	2c\	.	2.cc\
1r	2d\	1r	.
.	.	.	4b\
.	[2f\	.	4a/
.	.	.	4g/
=39	=39	=39	=39
0r	4f\]	0r	4a/
.	4e\	.	4g/
.	4d\	.	2.dd\
.	4c\	.	.
.	2B\	.	.
.	.	.	4cc\
.	2c\	.	[2cc\
=40	=40	=40	=40
1r	1d	0r	2cc\]
.	.	.	2b\
2r	1c	.	2cc\
[2F\	.	.	[2a/
=41	=41	=41	=41
2F\]	2r	1f	2a/]
4E\	2.c\	.	4g/
4D\	.	.	4f/
2C/	.	2g\	2e/
.	4B\	.	.
[2A\	4A/	4f\	[2cc\
.	4G/	4e\	.
=42	=42	=42	=42
2A\]	2A/	2f\	2cc\]
2G\	1d	2g\	2b\
2F\	.	2c\	2a/
2E\	[2c\	2c\	2g/
=43	=43	=43	=43
1D	2c\]	4d\	1f
.	.	4e\	.
.	2B\	4f\	.
.	.	4d\	.
2C/	[1c	2e\	2e/
[2A\	.	2f\	[2cc\
=44	=44	=44	=44
2A\]	1c]	4e\	2cc\]
.	.	4d\	.
2G\	.	2e\	2b\
2F\	1c	[1f	2a/
2E\	.	.	2g/
=45	=45	=45	=45
2D\	1.d	2f\]	1f
2C/	.	2e\	.
1BB-	.	2d\	[1b-
.	2G/	2c\	.
=46	=46	=46	=46
1.E-	1G	1B-	2b-\]
.	.	.	2a/
.	[1c	2.e-\	2.g/
2C/	.	.	.
.	.	4e-i\	4f/
=47	=47	=47	=47
[0Cl	2c\]	2e-i\	0e-i
.	2B-i\	2d\	.
.	2A/	1c	.
.	2G/	.	.
=48	=48	=48	=48
0C_	0G	[0cl	[0e-il
=49	=49	=49	=49
0C]	0Gl	0c]	0e-]
!!LO:LB:i:g=z
=50||	=50||	=50||	=50||
*>B	*>B	*>B	*>B
*clefF4	*clefGv2	*clefGv2	*clefG2
*k[]	*k[]	*k[]	*k[]
*M3/1	*M3/1	*M3/1	*M3/1
*met(3)	*met(3)	*met(3)	*met(3)
!!section: Agnus Dei II
!!!OMD: Agnus Dei II
0.r	0.r	1.f	0.r
.	.	2e\	.
.	.	1d	.
=51	=51	=51	=51
1.F	0.r	1c	0.r
.	.	1d	.
2E\	.	.	.
1D	.	1B	.
=52	=52	=52	=52
1C	1.c	1.A	0.r
0F	.	.	.
.	2B\	2G/	.
.	1A	2A/	.
.	.	2B\	.
=53	=53	=53	=53
1E	1G	1c	1.cc
0F	1A	2c\	.
.	.	1d	2b\
.	1F	.	1a
.	.	2c\	.
=54	=54	=54	=54
1E	1.G	1.c	1g
0D	.	.	1a
.	2E/	2B\	.
.	1F	1B	1f
=55	=55	=55	=55
0.C	1G	0.c	1.e
.	1.c	.	.
.	.	.	2d/
.	.	.	2e/
.	2B\	.	2f/
=56	=56	=56	=56
0.r	1B	0.r	1g
.	0c	.	2g/
.	.	.	1a
.	.	.	2g/
=57	=57	=57	=57
0.r	1B	0.r	1.g
.	0A	.	.
.	.	.	2f#i/
.	.	.	1f#i
=58	=58	=58	=58
0.r	0.G	1d	0.g
.	.	1d	.
.	.	1e	.
=59	=59	=59	=59
1D	0.r	1.f	0.r
1D	.	.	.
.	.	2e\	.
1E	.	1c	.
=60	=60	=60	=60
1.F	0.r	2d\	0.r
.	.	2e\	.
.	.	2f\	.
2E\	.	2g\	.
1C	.	1e	.
=61	=61	=61	=61
2D\	0.r	2f\	1a
2E\	.	2g\	.
2F\	.	2a\	1a
2D\	.	2f\	.
1G	.	1g	1b
=62	=62	=62	=62
1.A	1A	1.f	1.cc
.	1A	.	.
2F\	.	2d\	2b\
1G	1B	1e	1g
=63	=63	=63	=63
0F	1.c	0f	2a/
.	.	.	2b\
.	.	.	2cc\
.	2B\	.	2dd\
1r	1G	1r	1b
=64	=64	=64	=64
0.r	2A/	0.r	2cc\
.	2B\	.	2dd\
.	2c\	.	2ee\
.	2A/	.	2cc\
.	1B	.	1dd
=65	=65	=65	=65
1r	2c\	0.r	1.cc
.	2d\	.	.
1r	2e\	.	.
.	2c\	.	2a/
1G	1d	.	1b
=66	=66	=66	=66
1.A	0.c	1r	0.cc
.	.	1r	.
2G\	.	.	.
1E	.	1g	.
=67	=67	=67	=67
1F	0.r	1.a	0.r
1A	.	.	.
.	.	2g\	.
1G	.	1e	.
=68	=68	=68	=68
1F	0.r	1f	0.r
1r	.	1a	.
1G	.	1g	.
=69	=69	=69	=69
1.A	0.r	1c	0.r
.	.	1r	.
2G\	.	.	.
1E	.	1g	.
=70	=70	=70	=70
1F	1r	1a	1r
1A	1r	1f	1r
1G	1B	1g	1dd
=71	=71	=71	=71
0C	2c\	2e\	1.ee
.	2d\	2f\	.
.	2e\	2g\	.
.	2f\	2a\	2dd\
1r	1d	1f	1b
=72	=72	=72	=72
1C	1.e	0g	1cc
1C	.	.	1ee
.	2d\	.	.
1G	1B	1g	1dd
=73	=73	=73	=73
1.E	1c	1.g	1g
.	1e	.	1r
2C/	.	2e\	.
1D	1d	1f	1dd
=74	=74	=74	=74
2C/	1G	[0.g	1.ee
2D\	.	.	.
2E\	1r	.	.
2F\	.	.	2dd\
1G	1d	.	1b
=75	=75	=75	=75
0C	1.e	0.g]	1cc
.	.	.	1ee
.	2d\	.	.
1G	1B	.	1dd
=76	=76	=76	=76
1E	1.c	0.r	1cc
0D	.	.	0ff
.	2B\	.	.
.	1B	.	.
=77	=77	=77	=77
0C	0.c	1g	0ee
.	.	1g	.
1r	.	1e	1r
=78	=78	=78	=78
1F	0.r	1.f	1a
1A	.	.	1cc
.	.	2c\	.
1G	.	2d\	1b
.	.	2e\	.
=79	=79	=79	=79
2F\	0.r	0f	1a
2G\	.	.	.
2A\	.	.	1cc
2F\	.	.	.
1G	.	1d	1b
=80	=80	=80	=80
0D	1d	1.a	1a
.	1f	.	1dd
.	.	2f\	.
1r	1e	1g	1cc
=81	=81	=81	=81
0.r	1d	0a	1.dd
.	1f	.	.
.	.	.	2b\
.	1e	1r	1cc
=82	=82	=82	=82
1D	1.d	1.a	0dd
1F	.	.	.
.	2c\	2f\	.
1E	1c	1g	1r
=83	=83	=83	=83
1D	1.d	1.f	1.a
1F	.	.	.
.	2B\	2d\	2g/
1E	1c	1e	1g
=84	=84	=84	=84
1D	1d	1.f	1f
0G	0B	.	1.g
.	.	2d\	.
.	.	1e	.
.	.	.	2a/
=85	=85	=85	=85
2F\	0A	1.f	1a
2G\	.	.	.
2A\	.	.	2f/
2B\	.	2d\	2g/
1c	1r	1e	2a/
.	.	.	2b\
=86	=86	=86	=86
1F	1A	1A	1.cc
1A	2F/	1f	.
.	2G/	.	2b\
1G	2A/	1e	1g
.	2B\	.	.
=87	=87	=87	=87
1F	1.c	1f	1a
2C/	.	2e\	1g
2D\	2B\	2f\	.
1E	1G	1g	1c
=88	=88	=88	=88
1F	1A	2c\	1.cc
.	.	2d\	.
0C	1G	2e\	.
.	.	2f\	2b\
.	1E	2g\	1g
.	.	2e\	.
=89	=89	=89	=89
1F	1.c	1f	1a
2C/	.	2e\	1g
2D\	2B\	2f\	.
1E	1G	1g	1c
=90	=90	=90	=90
1F	1A	[0.c	1.cc
0C	1G	.	.
.	.	.	2b\
.	1E	.	1g
=91	=91	=91	=91
1.C	1.c	0.c]	1a
.	.	.	1.g
2D\	2B\	.	.
1E	1G	.	.
.	.	.	2f/
=92	=92	=92	=92
1F	1A	[0.cl	0f
0C	0G	.	.
.	.	.	1e
=93	=93	=93	=93
0.FFl	0.Fl	0.c]	0.fl
==	==	==	==
*-	*-	*-	*-
!!!RDF**kern: l=long note in original notation
!!!RDF**kern: i=editorial accidental
!!!ENC:	Chris Gage 06-24-2013
!!!END:	2013/08/05/
!!!EED:	Jesse Rodin
!!!EEV:	2013/08/06/
!!!ONB:	Translated from MusicXML and edited on 2013/08/06/ by Craig Sapp
!!muse2ps: T^@{OPR}^u^@{ONM}{. }@{OTL}^C^@{COM}^i2I150v85,85,85,150Q16
